X: 305846
T: COTILLION No. 39. CONCERT HALL SETT tune 1
C:
%R: jig
B: Elias Howe "The Musician's Companion" Part 3 1844 p.154 #1
S: http://imslp.org/wiki/The_Musician's_Companion_(Howe,_Elias)
Z: 2015 John Chambers <jc:trillian.mit.edu>
M: 6/8
L: 1/8
K: D
% - - - - - - - - - - - - - - - - - - - - - - - - -
D |\
DFA Afe | dcB A2d | DFB AGF | EFD B,2A, |\
DFA Afe | dcB A2d | F>GA B<ed | A>Bc d2 H|]
(f/g/) |\
(af)d dcd | eBB B2c | dFF F2G | A>BA A2 (f/g/) |\
afd dcd | eBB B2d | A(ba) A(gf) | Ace "^D.C."d2 |]
D/E/ |\
F3 FED | DAA A2D/E/ | F3 FED | EA,A, A,2 D/E/ |\
F3 FED | DAA A2d/e/ | fed agf | ed^c "^D.C."d2 :|
% - - - - - - - - - - Dance description - - - - - - - - - -
%%begintext align
%% First 4 forward and back,
%% back to back,
%% balance 4 and turn partners,
%% ladies chain,
%% promenade 4.
%% Side couples the same.
%%endtext
% - - - - - - - - - - - - - - - - - - - - - - - - -
%%sep 1 1 300


